packages/sights/assets/overlays/B5s1CWT-.svg

<svg width="500" height="375" viewBox="0 0 500 375" fill="none" xmlns="http://www.w3.org/2000/svg">
<path d="M7 52.3596C7 52.3596 196.19 28.5896 290.43 48.5396C290.43 48.5396 336.75 64.2796 365.79 79.2596" stroke="white" stroke-miterlimit="10"/>
<path d="M394.49 92.4102L429.96 110.41C429.96 110.41 486.59 114.07 491.75 117.13" stroke="white" stroke-miterlimit="10"/>
<path d="M7 210.65C7 210.65 32 240.46 32 271.18L40 298H466.5L468.79 274.92C468.79 274.92 465.79 229.98 491.79 207.92" stroke="white" stroke-miterlimit="10"/>
<path d="M39.1 295C39.1 295 29.19 326 7 336.08" stroke="white" stroke-miterlimit="10"/>
<path d="M461.141 298C461.141 298 467.491 320.93 491.751 336.83" stroke="white" stroke-miterlimit="10"/>
<path d="M7 88.1299C7 88.1299 55.19 52.9399 65 49.2999C65 49.2999 217.56 38.4499 289.1 52.1999C289.1 52.1999 330.91 62.7499 365.84 84.5399" stroke="white" stroke-miterlimit="10"/>
<path d="M365.749 73.8701L370.069 72.8701L386.119 78.0001C386.119 78.0001 395.179 87.7501 394.489 95.6601L392.999 101.16L393.229 103.16L406.299 110.5L415.239 111.99L422.119 119.09L370.529 115.77C370.529 115.77 364.869 81.0001 365.749 73.8701Z" stroke="white" stroke-miterlimit="10"/>
<path d="M393.229 103.11L391.129 108.11C391.129 108.11 372.399 115.91 370.529 115.68" stroke="white" stroke-miterlimit="10"/>
<path d="M7 104.33C7 104.33 334.61 106.63 369.15 115.72" stroke="white" stroke-miterlimit="10"/>
<path d="M181.471 45.2305L189.971 106.93C189.971 106.93 199.741 161.5 196.681 223.57L202.491 246.19V255.67C202.491 255.67 201.601 263.95 200.551 272.67" stroke="white" stroke-miterlimit="10"/>
<path d="M7 187.11C7 187.11 37.51 212.48 41.18 244.59L457.32 253C457.32 253 460.27 212.74 492.96 187.51" stroke="white" stroke-miterlimit="10"/>
<path d="M31.9688 271.18L468.779 274.93" stroke="white" stroke-miterlimit="10"/>
<path d="M217.389 150C217.389 150 203.569 149.69 203.249 147.71C203.029 146.26 201.799 144.35 202.949 140.71C202.949 140.71 231.949 134.83 253.949 143.31C253.949 143.31 255.019 147.06 253.949 148.74C250.246 150.029 246.324 150.573 242.409 150.34C242.409 150.34 242.869 148.34 238.589 147.21C238.589 147.21 218.939 146.6 218.709 147.29C217.933 147.987 217.459 148.959 217.389 150Z" stroke="white" stroke-miterlimit="10"/>
<path d="M6.99984 131.69C6.99984 131.69 22.9998 135.06 23.4098 137C23.5272 138.461 23.3988 139.931 23.0298 141.35C23.0298 141.35 11.7098 143.8 10.1098 143.57C10.1098 143.57 8.19984 141.2 6.58984 141.13" stroke="white" stroke-miterlimit="10"/>
</svg>

<svg width="500" height="375" fill="none" xmlns="http://www.w3.org/2000/svg"><path d="M7 52.36s189.19-23.77 283.43-3.82c0 0 46.32 15.74 75.36 30.72M394.49 92.41l35.47 18s56.63 3.66 61.79 6.72M7 210.65s25 29.81 25 60.53L40 298h426.5l2.29-23.08s-3-44.94 23-67" stroke="#fff" stroke-miterlimit="10"/><path d="M39.1 295S29.19 326 7 336.08M461.141 298s6.35 22.93 30.61 38.83M7 88.13S55.19 52.94 65 49.3c0 0 152.56-10.85 224.1 2.9 0 0 41.81 10.55 76.74 32.34M365.749 73.87l4.32-1 16.05 5.13s9.06 9.75 8.37 17.66l-1.49 5.5.23 2 13.07 7.34 8.94 1.49 6.88 7.1-51.59-3.32s-5.66-34.77-4.78-41.9Z" stroke="#fff" stroke-miterlimit="10"/><path d="m393.229 103.11-2.1 5s-18.73 7.8-20.6 7.57M7 104.33s327.61 2.3 362.15 11.39" stroke="#fff" stroke-miterlimit="10"/><path d="m181.471 45.23 8.5 61.7s9.77 54.57 6.71 116.64l5.81 22.62v9.48s-.89 8.28-1.94 17" stroke="#fff" stroke-miterlimit="10"/><path d="M7 187.11s30.51 25.37 34.18 57.48L457.32 253s2.95-40.26 35.64-65.49M31.969 271.18l436.81 3.75M217.389 150s-13.82-.31-14.14-2.29c-.22-1.45-1.45-3.36-.3-7 0 0 29-5.88 51 2.6 0 0 1.07 3.75 0 5.43a29.73 29.73 0 0 1-11.54 1.6s.46-2-3.82-3.13c0 0-19.65-.61-19.88.08a4.004 4.004 0 0 0-1.32 2.71ZM7 131.69s16 3.37 16.41 5.31a13.11 13.11 0 0 1-.38 4.35s-11.32 2.45-12.92 2.22c0 0-1.91-2.37-3.52-2.44" stroke="#fff" stroke-miterlimit="10"/></svg>
